X: 10296
T: Dolan's 6am
R: reel
M: 4/4
K: Aminor
|:eA A/A/A AGEG|FA A/A/A GBdf|eagb bc'ae|fagb d'c'bg|
ae e/e/e deAc|BG G/G/G AGED|EA A/A/A GBdB|cedB A3d:|
|:eA A/A/A aAgA|A/A/A aA gedc|eA A/A/A aAga|b3c' bagb|
ae e/e/e deAB|c3A AGEG|FA A/A/A GBdB|cedB A3d:|

